!!!ONB: MCCC : IJH0402_02 : Extracted Monophonic Melody
!!!COM: Haydn, Joseph
!!!OPR: String Quartet in A major
!!!OMV: 2
!!!SCT: Hob.III:60 ; Op.55 No.1
!!!ODT: 1788///
**kern
*thru
*clefG2
*k[f#c#]
*D:
*M2/4
=8
4aa
8.bb
32ccc#
32ddd
=9
16ddd
16aa
8aa[
16aa]
32bb
32aa
32gg
32ff#
32ee
32dd
=10
16.cc#
32a
16.dd
32a
8gg
32ff#
32ee
32ff#
32gg
=11
4ff#
16ee
16ff#
16gg
16gg#
=12
4aa
8.bb
32ccc#
32ddd
=13
16ddd
16aa
8aa[
16aa]
32bb
32ccc#
32ddd
32eee
32fff#
32ggg
=14
8aaa
16.r
32fff#
8ddd
32eee
32ddd
32eee
32fff#
=15
4ddd
4r
=16
32r
32dd
32ee
32ff#
32gg
32aa
32bb
32ccc#
8ddd
8r
=17
32r
32a
32b
32cc#
32dd
32ee
32ff#
32gg
8aa
32aa
32gg#
32aa
32bb
=18
8aa
8r
8aa
32aa
32gg#
32aa
32bb
=19
16gg#
8ddd
8ccc#
8bb
16aa#[
=20
16aa#]
8bb
16aa#
16bb
16aa#
16bb
16aa
=21
16gg#
16ee
16ee
16ee
16ee
16ee
16ee
16ee
=22
4ee
8.ff#
32gg#
32aa
=23
16aa
16ee
8ee[
16ee]
16ee#
32ff#
32gg#
32gg#
32aa
=24
16aa
16ee
8ee[
16ee]
16ee#
32ff#
32gg#
32gg#
32aa
=25
4aa
4bb-
=26
4aa
4ccc
=27
8ccc#
16.r
32ccc#
32eee
32ccc#
32bb
32ddd
32ccc#
32aa
32ccc#
32bb
=28
32gg#
32bb
32aa
32ff#
32aa
32gg#
32ee
32gg#
32ff#
32dd
32ff#
32ee
32cc#
32ee
32dd
32b
=29
32dd
32cc#
32a
32cc#
32b
32g#
32b
32a
32f#
32a
32g#
32e
32g#
32f#
32d
32f#
=30
32e
32c#
32a
32c#
32a
32d
32a
32d#
32a
32e
32a
32f
32a
32e
32a
32d#
=31
32e
32a
32cc#
32ee
32aa
32ccc#
32eee
32eee
32eee
32eee
32eee
32eee
32eee
32ddd#
32ddd
32ccc#
=32
2bb
=33
2aa
=34
2aa
=35
4aa
8.bb
32ccc#
32ddd
=36
16ddd
16aa
8aa[
16aa]
32bb
32aa
32gg
32ff#
32ee
32dd
=37
16.cc#
32a
16.dd
32a
8gg
32ff#
32ee
32ff#
32gg
=38
4ff#
16ee
16ff#
16gg
16gg#
=39
4aa
8.bb
32ccc#
32ddd
=40
16ddd
16aa
8aa[
16aa]
32bb
32ccc#
32ddd
32eee
32fff#
32ggg
=41
8aaa
16.r
32fff#
8ddd
32eee
32ddd
32eee
32fff#
=42
4ddd
4bb-
=43
4cc#
4dd
=44
4ee
8ff
32ff
32ee
32ff
32gg
=45
8ee
8ee
8ee
8r
=46
4.ff
16ee
16gg
=47
4aa
4gg[
=48
8gg]
8aa
8bb-
8aa
=49
8gg[
48gg]
48aa
48bb-
48ddd
48bb-
48gg
8ff
16.gg
32ff
=50
4ff
4aa
=51
4gg
8ff
32ff
32ee
32ff
32gg
=52
4ff
16ee
16ee
16ff#
16gg
=53
4aa
8.bb
32ccc#
32ddd
=54
16ddd
16aa
8aa[
16aa]
32bb
32aa
32gg
32ff#
32ee
32dd
=55
16.cc#
32a
16.dd
32a
8gg
32ff#
32ee
32ff#
32gg
=56
4ff#
16ee
16ff#
16gg
16gg#
=57
4aa
8.bb
32ccc#
32ddd
=58
16ddd
16aa
8aa[
16aa]
32bb
32ccc#
32ddd
32eee
32fff#
32ggg
=59
8aaa
8r
16r
16ddd
16ddd
16ddd
=60
4ddd
32ddd
32ccc#
32aa
32ccc#
32bb
32gg
32bb
32aa
=61
32ff#
32aa
32gg
32ee
32gg
32ff#
32dd
32ff#
32ee
32cc#
32ee
32dd
32b
32dd
32cc#
32a
=62
32b
32a
32dd
32cc#
32b
32a
32dd
32cc#
32ff#
32ee
32gg
32ff#
32ee
32dd
32gg
32ff#
=63
32ee
32dd
32gg
32ff#
32bb
32dd
32cc#
32dd
32cc#
32cc
32b
32cc
32b
32b-
32a
32b-
=64
32a
32g
32f#
32g
32f#
32d
32c#
32d
32B
32d
32A
32d
32G#
32d
32f#
32d
=65
32f#
32c#
32d
32e
32f#
32g
32a
32b
32cc#
32dd
32ee
32ff#
32gg
32aa
32bb
32ccc#
=66
8ddd
8r
4ee
=67
8dd
8r
8.bb
32ccc#
32ddd
=68
16ddd
16aa
8aa
32gg
32ff#
32gg
32bb
32aa
32gg
32ff#
32gg
=69
8ff#
8r
8.b
32cc#
32dd
=70
16.dd
32a
16.a
32dd
32cc#
32dd
32ee
32ff#
32gg
32aa
32bb
32ccc#
=71
8ddd
8r
4gg
=72
8ff#
8r
4g
=73
8f#
8d
8d
8r
==
*-
